resources/icons/brands_color/looksrare.svg

<svg viewBox="0 0 41 40" fill="none" xmlns="http://www.w3.org/2000/svg">
  <g clip-path="url(#clip0_22075_67702)">
    <path
      d="M20.5 40C31.5457 40 40.5 31.0457 40.5 20C40.5 8.9543 31.5457 0 20.5 0C9.4543 0 0.5 8.9543 0.5 20C0.5 31.0457 9.4543 40 20.5 40Z"
      fill="black" />
    <path
      d="M13.1792 14.5458C17.2214 10.5264 23.7751 10.5264 27.8174 14.5458L31.3091 18.0177L27.8174 21.4897C23.7752 25.509 17.2214 25.509 13.1792 21.4897L9.6875 18.0177L13.1792 14.5458Z"
      fill="black" />
    <path fill-rule="evenodd" clip-rule="evenodd"
      d="M7.16797 18.0232L15.0959 10.0898H25.9067L33.8346 18.0232L20.5013 31.3511L7.16797 18.0232ZM26.6274 15.1347C23.2588 11.7514 17.7437 11.7514 14.3751 15.1348L11.4923 18.0177L14.3751 20.9006C17.7437 24.2838 23.2588 24.2838 26.6274 20.9006L29.5103 18.0177L26.6274 15.1347Z"
      fill="#0CE466" />
    <path
      d="M20.4991 20.5411C19.1065 20.5411 17.9766 19.4123 17.9766 18.0186C17.9766 16.6249 19.1065 15.4961 20.4991 15.4961C21.8916 15.4961 23.0216 16.6249 23.0216 18.0186C23.0216 19.4123 21.8916 20.5411 20.4991 20.5411Z"
      fill="black" />
    <path fill-rule="evenodd" clip-rule="evenodd"
      d="M16.3555 18.0172C16.3555 20.3068 18.2118 22.1613 20.4996 22.1613C22.7874 22.1613 24.6437 20.3068 24.6437 18.0172C24.6437 15.7275 22.7874 13.873 20.4996 13.873C18.2118 13.873 16.3555 15.7275 16.3555 18.0172ZM18.6978 18.0172C18.6978 19.0127 19.5049 19.819 20.4996 19.819C21.4943 19.819 22.3014 19.0127 22.3014 18.0172C22.3014 17.0217 21.4943 16.2154 20.4996 16.2154C19.5049 16.2154 18.6978 17.0217 18.6978 18.0172Z"
      fill="white" />
  </g>
  <defs>
    <clipPath id="clip0_22075_67702">
      <rect width="40" height="40" fill="white" transform="translate(0.5)" />
    </clipPath>
  </defs>
</svg>

<svg viewBox="0 0 41 40" fill="none" xmlns="http://www.w3.org/2000/svg"><g clip-path="url(#clip0_22075_67702)"><path d="M20.5 40c11.046 0 20-8.954 20-20s-8.954-20-20-20S.5 8.954.5 20s8.954 20 20 20Z" fill="black"/><path d="M13.18 14.546c4.041-4.02 10.595-4.02 14.637 0l3.492 3.472-3.492 3.472c-4.042 4.019-10.596 4.019-14.638 0l-3.492-3.472 3.492-3.472Z" fill="black"/><path fill-rule="evenodd" clip-rule="evenodd" d="m7.168 18.023 7.928-7.933h10.81l7.929 7.933L20.5 31.351 7.168 18.023Zm19.46-2.888c-3.37-3.384-8.884-3.384-12.253 0l-2.883 2.883 2.883 2.883c3.369 3.383 8.884 3.383 12.252 0l2.883-2.883-2.883-2.883Z" fill="#0CE466"/><path d="M20.5 20.541a2.522 2.522 0 1 1 0-5.045 2.522 2.522 0 0 1 0 5.045Z" fill="black"/><path fill-rule="evenodd" clip-rule="evenodd" d="M16.355 18.017a4.144 4.144 0 1 0 8.289 0 4.144 4.144 0 0 0-8.288 0Zm2.343 0a1.802 1.802 0 1 0 3.603 0 1.802 1.802 0 0 0-3.603 0Z" fill="white"/></g><defs><clipPath id="clip0_22075_67702"><rect width="40" height="40" fill="white" transform="translate(0.5)"/></clipPath></defs></svg>
